X: 33
T:Missa Pange lingua / Agnus Dei
N: Derived from Jos0403e-Missa_Pange_lingua-Agnus.krn
C: Josquin des Prez
%%abc-version 2.0
%%abcx-abcm2ps-target-version 5.9.1 (29 Sep 2008)
%%abc-creator hum2abc beta
%%abcx-conversion-date 2019/02/12 16:15:39
%%abc-edited-by Jesse Rodin
%%abc-edited-by Will Watson 01/09/2011; Victoria Chang 04/09/2011
%%abcx-initial-encoding-date 2011/04/09/
%%humdrum-veritas 2031443385
%%humdrum-veritas-data 277151125
%%linebreak <none>
%%barnumbers 0
L: 1/4
M: 3/1
Q: 1/2=120
%%staves [1 2 3 4]
V: 1 clef=treble
V: 2 clef=treble-8
V: 3 clef=treble-8
V: 4 clef=bass
K: C
[V:1] z12 | 
[V:2] E4E4F4 | 
[V:3] z12 | 
[V:4] z12 | 
[V:1] z12 | 
[V:2] E3CC2G2A3B | 
[V:3] z12 | 
[V:4] E,4E,4F,4 | 
[V:1] z12 | 
[V:2] c2C2G3FD4 | 
[V:3] E4E4F4 | 
[V:4] E,3C,C,2G,2A,3B, | 
[V:1] z12 | 
[V:2] C2G2C2G2A3B | 
[V:3] E8D4 | 
[V:4] C2C,2G,2C,2F,3E, | 
[V:1] E4E4F4 | 
[V:2] c8d4 | 
[V:3] z2G4G2A3B | 
[V:4] C,3B,,C,2E,2D,4 | 
[V:1] E8D4 | 
[V:2] G4c4z2d2 | 
[V:3] c2G2A2c4B2 | 
[V:4] C,8G,,4 | 
[V:1] z2G4G2A3B | 
[V:2] e2cdefg2f3e/d/ | 
[V:3] c8z4 | 
[V:4] C,3B,,C,2E,2D,4 | 
[V:1] c2G2A2c4B2 | 
[V:2] e2E2F2C2G4 | 
[V:3] c4c4d4 | 
[V:4] C,3B,,A,,4G,,4 | 
[V:1] c4z4z4 | 
[V:2] E3FG2A2F2A2- | 
[V:3] c4B2A2d4 | 
[V:4] C,3D,E,2F,2D,2F,2- | 
[V:1] z12 | 
[V:2] A2G2F2E2D4 | 
[V:3] c3B/c/B2A4^G2 | 
[V:4] F,2E,2D,2C,2B,,4 | 
[V:1] c4c4d4 | 
[V:2] E4z2e2f2d2 | 
[V:3] A8D4 | 
[V:4] A,,8z4 | 
[V:1] c4B2A2d4 | 
[V:2] f2e3dc2B4 | 
[V:3] A4E2F2G4 | 
[V:4] z12 | 
[V:1] c6A2B4 | 
[V:2] A4z2c2d3e | 
[V:3] A4E4G4 | 
[V:4] A,,8G,,4 | 
[V:1] A4G2F2E4 | 
[V:2] f4e2d2g4 | 
[V:3] FGABc2d4^c2 | 
[V:4] D,4z4z4 | 
[V:1] D4z2d4c2 | 
[V:2] f6d2e4 | 
[V:3] d4A2B2A4 | 
[V:4] D,8A,,4 | 
[V:1] B2A2d4c4 | 
[V:2] d6cBA4 | 
[V:3] D4z4z4 | 
[V:4] z2D,3E,F,G,A,2F,2 | 
[V:1] B2d3cB2A4 | 
[V:2] G4g4f4 | 
[V:3] z4z2d2d2d2 | 
[V:4] G,8D,4 | 
[V:1] G4z2G2G2G2 | 
[V:2] e2g3fe2d4 | 
[V:3] B2e3dc4B2 | 
[V:4] E,2C,2E,3F,G,4 | 
[V:1] E2c3BA4G2 | 
[V:2] c3BG2A2e4 | 
[V:3] c4z2c2c2c2 | 
[V:4] C,3D,E,2F,2C,4 | 
[V:1] A4z2A2A2A2 | 
[V:2] z2c2f4e4 | 
[V:3] A2f3ed4^c2 | 
[V:4] F,4D,4A,4 | 
[V:1] F2_B3AG4^F2 | 
[V:2] d3cd2B2A4 | 
[V:3] d4z2d2d2d2 | 
[V:4] D,2G,3F,G,2D,4 | 
[V:1] G4z2G2G2G2 | 
[V:2] G2g3fe2d2g2- | 
[V:3] B2e3dc4B2 | 
[V:4] E,4C,4G,,4 | 
[V:1] E2G3FE4D2 | 
[V:2] gfe3dc2B4 | 
[V:3] c4G3GG2G2 | 
[V:4] C,8G,,4 | 
[V:1] E12- | 
[V:2] c3cB2B2c4 | 
[V:3] C3DE8- | 
[V:4] G,3G,G,2G,2C,3D, | 
[V:1] E12 ||  
[V:2] B12 ||  
[V:3] E12 ||  
[V:4] E,12 ||  
[V:1]  [K:C] [K:clef=treble][M:2/1]E8 | 
[V:2]  [K:C] [K:clef=treble-8][M:2/1]z8 | 
[V:3]  [K:C] [K:clef=treble-8][M:2/1]z8 | 
[V:4]  [K:C] [K:clef=bass][M:2/1]z8 | 
[V:1] E4F4- | 
[V:2] z8 | 
[V:3] z8 | 
[V:4] z8 | 
[V:1] F4E4 | 
[V:2] A8 | 
[V:3] z8 | 
[V:4] z8 | 
[V:1] z2A4GF | 
[V:2] A4B4- | 
[V:3] z8 | 
[V:4] z8 | 
[V:1] G4A4 | 
[V:2] B4A4 | 
[V:3] z8 | 
[V:4] z8 | 
[V:1] D4E4- | 
[V:2] z2d4cB | 
[V:3] z8 | 
[V:4] z8 | 
[V:1] E4D4 | 
[V:2] c4d4 | 
[V:3] z8 | 
[V:4] z8 | 
[V:1] z2G4FE | 
[V:2] G4A4- | 
[V:3] z8 | 
[V:4] z8 | 
[V:1] F4G4 | 
[V:2] A4G4 | 
[V:3] z8 | 
[V:4] z8 | 
[V:1] C4D4- | 
[V:2] z2c4BA | 
[V:3] z8 | 
[V:4] z8 | 
[V:1] D4C4 | 
[V:2] B4c4 | 
[V:3] z8 | 
[V:4] z8 | 
[V:1] F8 | 
[V:2] d8 | 
[V:3] z8 | 
[V:4] z8 | 
[V:1] E4A4- | 
[V:2] c8 | 
[V:3] z8 | 
[V:4] z8 | 
[V:1] A4G4 | 
[V:2] d4e4- | 
[V:3] z8 | 
[V:4] z8 | 
[V:1] F6ED | 
[V:2] e2dcd4 | 
[V:3] z8 | 
[V:4] z8 | 
[V:1] C8 | 
[V:2] e8- | 
[V:3] z8 | 
[V:4] z8 | 
[V:1] z4G4 | 
[V:2] e8 | 
[V:3] z8 | 
[V:4] z8 | 
[V:1] A4B4 | 
[V:2] c4d4 | 
[V:3] z8 | 
[V:4] z8 | 
[V:1] c4A4 | 
[V:2] e4f4 | 
[V:3] z8 | 
[V:4] z8 | 
[V:1] B4G4- | 
[V:2] d4e4 | 
[V:3] z8 | 
[V:4] z8 | 
[V:1] G2E2E4 | 
[V:2] c6A2 | 
[V:3] z8 | 
[V:4] z8 | 
[V:1] c6c2 | 
[V:2] A4f4- | 
[V:3] z8 | 
[V:4] z8 | 
[V:1] c4A4 | 
[V:2] f2f2f4 | 
[V:3] z8 | 
[V:4] z8 | 
[V:1] d6B2 | 
[V:2] d4g4- | 
[V:3] z8 | 
[V:4] z8 | 
[V:1] B4z4 | 
[V:2] g2e2e4 | 
[V:3] z8 | 
[V:4] z8 | 
[V:1] c6c2 | 
[V:2] z4f4- | 
[V:3] z8 | 
[V:4] z8 | 
[V:1] c2A2d4- | 
[V:2] f2f2f2d2 | 
[V:3] z8 | 
[V:4] z8 | 
[V:1] d2B2B4 | 
[V:2] g6e2 | 
[V:3] z8 | 
[V:4] z8 | 
[V:1] z4B4 | 
[V:2] e4z4 | 
[V:3] z8 | 
[V:4] z8 | 
[V:1] c6B2 | 
[V:2] e4f4- | 
[V:3] z8 | 
[V:4] z8 | 
[V:1] A2G2A4 | 
[V:2] f2e2d2c2 | 
[V:3] z8 | 
[V:4] z8 | 
[V:1] B6G2 | 
[V:2] d4e4- | 
[V:3] z8 | 
[V:4] z8 | 
[V:1] G4c4- | 
[V:2] e2c2c4 | 
[V:3] z8 | 
[V:4] z8 | 
[V:1] c2B2A2G2 | 
[V:2] f6e2 | 
[V:3] z8 | 
[V:4] z8 | 
[V:1] F2E2G2F2- | 
[V:2] d2c2_B2A2 | 
[V:3] z8 | 
[V:4] z8 | 
[V:1] F2EDC4 | 
[V:2] _B4A4- | 
[V:3] z8 | 
[V:4] z8 | 
[V:1] c6B2 | 
[V:2] A4f4- | 
[V:3] z8 | 
[V:4] z8 | 
[V:1] A2G2F2E2 | 
[V:2] f2e2d2c2 | 
[V:3] z8 | 
[V:4] z8 | 
[V:1] A4G4 | 
[V:2] f4e4- | 
[V:3] z8 | 
[V:4] z8 | 
[V:1] z2G2A2c2 | 
[V:2] e4z2c2 | 
[V:3] z8 | 
[V:4] z8 | 
[V:1] B2A2G2F2 | 
[V:2] d2f2e2d2 | 
[V:3] z8 | 
[V:4] z8 | 
[V:1] E2B2c2B2 | 
[V:2] c2B2A2e2 | 
[V:3] z8 | 
[V:4] z8 | 
[V:1] A2c3BA2- | 
[V:2] f2e2c2d2 | 
[V:3] z8 | 
[V:4] z8 | 
[V:1] A2^G2A4- | 
[V:2] B4A4 | 
[V:3] z8 | 
[V:4] z8 | 
[V:1] A4z2F2 | 
[V:2] z2c2d2f2 | 
[V:3] z8 | 
[V:4] z8 | 
[V:1] G2_B2A2G2 | 
[V:2] e2d2c2B2 | 
[V:3] z8 | 
[V:4] z8 | 
[V:1] F2E2D2F2 | 
[V:2] A2c2B2A2 | 
[V:3] z8 | 
[V:4] z8 | 
[V:1] E2G2F2E2- | 
[V:2] c3BA2G2 | 
[V:3] z8 | 
[V:4] z8 | 
[V:1] E2D2E4 | 
[V:2] F4E4- | 
[V:3] z8 | 
[V:4] z8 | 
[V:1] z2B2c2B2 | 
[V:2] E4z2e2 | 
[V:3] z8 | 
[V:4] z8 | 
[V:1] A2c3BA2- | 
[V:2] f2e2c2d2 | 
[V:3] z8 | 
[V:4] z8 | 
[V:1] A2G2A2E2 | 
[V:2] B4A3G | 
[V:3] z8 | 
[V:4] z8 | 
[V:1] z2B2c2B2 | 
[V:2] E4z2e2 | 
[V:3] z8 | 
[V:4] z8 | 
[V:1] A2c3BA2- | 
[V:2] f2e2c2d2 | 
[V:3] z8 | 
[V:4] z8 | 
[V:1] A2^G2A4 ||  
[V:2] B4A4 ||  
[V:3] z8 ||  
[V:4] z8 ||  
[V:1]  [K:C] [K:clef=treble][M:2/1]E4E4 | 
[V:2]  [K:C] [K:clef=treble-8][M:2/1]z8 | 
[V:3]  [K:C] [K:clef=treble-8][M:2/1]z8 | 
[V:4]  [K:C] [K:clef=bass][M:2/1]z8 | 
[V:1] F4E2G2- | 
[V:2] z4E4 | 
[V:3] z8 | 
[V:4] z8 | 
[V:1] GFE4D2 | 
[V:2] E4F4 | 
[V:3] z8 | 
[V:4] z8 | 
[V:1] E8 | 
[V:2] E2G3FE2- | 
[V:3] z8 | 
[V:4] E,4E,4 | 
[V:1] z8 | 
[V:2] E2D2E4 | 
[V:3] z4E4 | 
[V:4] F,4E,2G,2- | 
[V:1] z8 | 
[V:2] z8 | 
[V:3] E4F4 | 
[V:4] G,F,E,4D,2 | 
[V:1] E8 | 
[V:2] B2c2B2c2- | 
[V:3] E2A2G2A2- | 
[V:4] E,2A,,2E,2A,,2- | 
[V:1] E8 | 
[V:2] c2BAG2A2 | 
[V:3] A2GFE4 | 
[V:4] A,,B,,C,D,E,2C,2 | 
[V:1] F8 | 
[V:2] F3GA3B | 
[V:3] z2D2F3G | 
[V:4] D,8 | 
[V:1] E8- | 
[V:2] c4z2A2- | 
[V:3] A2E2A4- | 
[V:4] A,,8- | 
[V:1] E8 | 
[V:2] ABcde2c2 | 
[V:3] A2GFE2A2 | 
[V:4] A,,8 | 
[V:1] D8 | 
[V:2] d4A2d2- | 
[V:3] F2D2z2D2- | 
[V:4] D,8- | 
[V:1] z8 | 
[V:2] d2cBA4 | 
[V:3] DEFGA2F2 | 
[V:4] D,4D,4 | 
[V:1] z8 | 
[V:2] G4z2G2- | 
[V:3] G8 | 
[V:4] G,,4G,4- | 
[V:1] z8 | 
[V:2] GABcd2B2 | 
[V:3] z8 | 
[V:4] G,2F,E,D,4 | 
[V:1] G8- | 
[V:2] c2e2d4- | 
[V:3] z2G3ABc | 
[V:4] C,4G,4- | 
[V:1] G8- | 
[V:2] d4c4 | 
[V:3] d2B2c4- | 
[V:4] G,4z2C,2- | 
[V:1] G8 | 
[V:2] e4d2e2 | 
[V:3] c2BAB2c2- | 
[V:4] C,D,E,F,G,2E,2 | 
[V:1] A8- | 
[V:2] c2f2e4- | 
[V:3] c2A3Bcd | 
[V:4] F,3G,A,4- | 
[V:1] A8- | 
[V:2] e4d4 | 
[V:3] e2c2d4- | 
[V:4] A,4z2D,2- | 
[V:1] A8 | 
[V:2] f4e2f2 | 
[V:3] d2cBc2d2 | 
[V:4] D,E,F,G,A,2F,2 | 
[V:1] G6FE | 
[V:2] d4g4 | 
[V:3] B2G3ABc | 
[V:4] G,8 | 
[V:1] D4C2G2- | 
[V:2] f2d2e3f | 
[V:3] d2B2c4 | 
[V:4] z8 | 
[V:1] GABcd2B2 | 
[V:2] g3fd4 | 
[V:3] G8 | 
[V:4] z8 | 
[V:1] c8- | 
[V:2] c4z2c2- | 
[V:3] c6BA | 
[V:4] C,8 | 
[V:1] c8 | 
[V:2] c2BAG2A2 | 
[V:3] G2A2E4 | 
[V:4] C,4C,4 | 
[V:1] z8 | 
[V:2] E2c2B2A2- | 
[V:3] z8 | 
[V:4] C,4D,4 | 
[V:1] z8 | 
[V:2] A2GFE2c2- | 
[V:3] z8 | 
[V:4] C,6B,,A,, | 
[V:1] z8 | 
[V:2] c2BAB2c2- | 
[V:3] z8 | 
[V:4] C,2D,2B,,2A,,2 | 
[V:1] z8 | 
[V:2] cBA4^G2 | 
[V:3] z8 | 
[V:4] C,2D,2B,,4 | 
[V:1] c4A2c2- | 
[V:2] A8 | 
[V:3] c8 | 
[V:4] A,,2A,2F,2A,2- | 
[V:1] c2BAG2A2 | 
[V:2] z4z2c2- | 
[V:3] c4c4 | 
[V:4] A,2G,F,E,2F,2 | 
[V:1] E2c2B2A2- | 
[V:2] c2BAG2D2 | 
[V:3] c4d4 | 
[V:4] C,4z4 | 
[V:1] A2GFE2c2- | 
[V:2] F3GA4 | 
[V:3] c6BA | 
[V:4] z4z2A,2- | 
[V:1] c2BAB2c2- | 
[V:2] z4z2e2 | 
[V:3] c2d2B2A2 | 
[V:4] A,2G,F,G,2A,2- | 
[V:1] cBA4G2 | 
[V:2] e2f2d3e | 
[V:3] c2d2B4 | 
[V:4] A,2D,2G,4 | 
[V:1] A8 | 
[V:2] f6ed | 
[V:3] A2d2c2A2 | 
[V:4] F,2D,2F,4- | 
[V:1] z8 | 
[V:2] c3de4 | 
[V:3] c6BA | 
[V:4] F,2E,D,C,3D, | 
[V:1] z8 | 
[V:2] z8 | 
[V:3] G2B2A4 | 
[V:4] E,F,G,4^F,2 | 
[V:1] z4G4 | 
[V:2] z2g3fe2 | 
[V:3] G8 | 
[V:4] G,4E,4 | 
[V:1] A4A4 | 
[V:2] d2c4BA | 
[V:3] z8 | 
[V:4] F,4F,4 | 
[V:1] B4B2c2- | 
[V:2] G2g3fe2- | 
[V:3] z4G4 | 
[V:4] G,4E,4 | 
[V:1] cBAGA4 | 
[V:2] edf3cd2 | 
[V:3] A4A4 | 
[V:4] F,4F,4 | 
[V:1] G3AB2c2 | 
[V:2] e8 | 
[V:3] B2c2B2e2- | 
[V:4] E,3F,G,2A,2 | 
[V:1] B2c4BA | 
[V:2] z8 | 
[V:3] edcBA2c2- | 
[V:4] G,2A,2F,4 | 
[V:1] G2A4^G2 | 
[V:2] z4e4 | 
[V:3] c2BAB4 | 
[V:4] E,8 | 
[V:1] A8 | 
[V:2] c4f4- | 
[V:3] A4z4 | 
[V:4] F,6D,2 | 
[V:1] z8 | 
[V:2] f2d2d4 | 
[V:3] A4B4 | 
[V:4] D,4z2D,2 | 
[V:1] z8 | 
[V:2] z8 | 
[V:3] G3EE2c2- | 
[V:4] E,4C,3A,, | 
[V:1] z8 | 
[V:2] z8 | 
[V:3] cBA3GFE | 
[V:4] A,,2F,3E,D,2- | 
[V:1] z4A4 | 
[V:2] z8 | 
[V:3] F2G4^F2 | 
[V:4] D,2C,B,,A,,4 | 
[V:1] B4G3E | 
[V:2] d4e4 | 
[V:3] G8 | 
[V:4] G,,8 | 
[V:1] E2c3BA2- | 
[V:2] c3AA2f2- | 
[V:3] z8 | 
[V:4] z8 | 
[V:1] A2GFE4 | 
[V:2] f2ed^cde^c | 
[V:3] z8 | 
[V:4] z8 | 
[V:1] D8 | 
[V:2] d6B2 | 
[V:3] z2d2d2d2- | 
[V:4] z4G,4 | 
[V:1] z4z2G2 | 
[V:2] B4z4 | 
[V:3] dcBAB4 | 
[V:4] G,2G,3F,E,D, | 
[V:1] G2G3FED | 
[V:2] z2e2e2e2- | 
[V:3] z4z2c2 | 
[V:4] E,4C,4- | 
[V:1] E4z2c2 | 
[V:2] edcBc4 | 
[V:3] c2c3BAG | 
[V:4] C,2A,,2A,,4 | 
[V:1] c2c3BAG | 
[V:2] z4f4- | 
[V:3] A3Bc2d2 | 
[V:4] F,6F,2 | 
[V:1] A4B4- | 
[V:2] f2f2d2d2 | 
[V:3] c2d2B3G | 
[V:4] F,2F,2G,4- | 
[V:1] B2G2G4 | 
[V:2] g6e2 | 
[V:3] G4z4 | 
[V:4] G,2E,2E,4 | 
[V:1] z2c4B2 | 
[V:2] e4z4 | 
[V:3] z2e4d2 | 
[V:4] C,4G,4 | 
[V:1] c2G2A4 | 
[V:2] z2e4d2 | 
[V:3] c2B2A4 | 
[V:4] A,2E,2F,4 | 
[V:1] G8 | 
[V:2] e2B2c4 | 
[V:3] B4z2e2- | 
[V:4] E,4C,4 | 
[V:1] z8 | 
[V:2] B4z2e2- | 
[V:3] e2d2c2B2 | 
[V:4] G,4A,2E,2 | 
[V:1] z8 | 
[V:2] e2d2e2B2 | 
[V:3] A4B2G2 | 
[V:4] F,4E,4 | 
[V:1] z2A4G2 | 
[V:2] c4B4 | 
[V:3] A4E4 | 
[V:4] A,,4E,4 | 
[V:1] A2E2F4 | 
[V:2] z4z2A2- | 
[V:3] z2e4d2 | 
[V:4] F,2C,2D,4 | 
[V:1] E8 | 
[V:2] A2G2A4 | 
[V:3] e2B2c4 | 
[V:4] A,,2E,2A,,2A,2- | 
[V:1] z8 | 
[V:2] E4z2e2- | 
[V:3] B4z4 | 
[V:4] A,2G,2A,2E,2 | 
[V:1] z8 | 
[V:2] e2d2e2B2 | 
[V:3] z2A4G2 | 
[V:4] F,4E,4 | 
[V:1] z2A4G2 | 
[V:2] c4B4 | 
[V:3] A4E4 | 
[V:4] A,,4E,4 | 
[V:1] A2E2F4 | 
[V:2] z4z2A2- | 
[V:3] z2e4d2 | 
[V:4] F,2C,2D,4 | 
[V:1] E8- | 
[V:2] A2G2A4 | 
[V:3] e2B2c4 | 
[V:4] A,,2E,2C,2A,,2 | 
[V:1] E8- | 
[V:2] G4A4 | 
[V:3] B4z4 | 
[V:4] E,4A,,4 | 
[V:1] E8- | 
[V:2] E8- | 
[V:3] B8 | 
[V:4] E,8- | 
[V:1] E8 |]  
[V:2] E8 |]  
[V:3] B8 |]  
[V:4] E,8 |]  



